X: 10582
T: MY LOVE IS OWER BONNIE FOR A MAN O' WAR.
%R: air, reel
B: W. Hamilton "Universal Tune-Book" Vol. 1 Glasgow 1844 p.58 #2
S: http://imslp.org/wiki/Hamilton's_Universal_Tune-Book_(Various)
Z: 2016 John Chambers <jc:trillian.mit.edu>
M: C|
L: 1/8
K: D
% - - - - - - - - - - - - - - - - - - - - - - - - -
A |\
d2(fd) ecA=c | B2(GB) AFD^c |\
d2(fd) ea^gf | edcB A3 ::\
=c |\
B2GB A2FA | G2EG AFD=c |\
B2GB Ad^cB | AGFE D3 :|
% - - - - - - - - - - - - - - - - - - - - - - - - -

%%sep 1 1 500
%%sep 1 1 500

